src/lib/packages/icons/src/assets/filled/image-check.svg

<svg width="24" height="24" viewBox="0 0 24 24" fill="none" xmlns="http://www.w3.org/2000/svg">
<path d="M21.75 11V17C21.75 19.418 20.418 20.75 18 20.75H6C3.582 20.75 2.25 19.418 2.25 17V7.00002C2.25 4.58202 3.582 3.25002 6 3.25002H13C13.414 3.25002 13.75 3.58602 13.75 4.00002C13.75 4.41402 13.414 4.75002 13 4.75002H6C4.423 4.75002 3.75 5.42302 3.75 7.00002V16.25L6.29004 13.71C6.68004 13.32 7.31996 13.32 7.70996 13.71L8.65002 14.6499C8.84002 14.8399 9.15998 14.8399 9.34998 14.6499L14.29 9.70998C14.68 9.31998 15.32 9.31998 15.71 9.70998L20.25 14.25V11C20.25 10.586 20.586 10.25 21 10.25C21.414 10.25 21.75 10.586 21.75 11ZM7.99304 7.75002C7.30404 7.75002 6.75 8.31002 6.75 9.00002C6.75 9.69002 7.31395 10.25 8.00195 10.25C8.69095 10.25 9.25 9.69002 9.25 9.00002C9.25 8.31002 8.69195 7.75002 8.00195 7.75002H7.99304ZM17.803 7.19704C17.949 7.34304 18.141 7.41702 18.333 7.41702C18.525 7.41702 18.717 7.34404 18.863 7.19704L21.53 4.53005C21.823 4.23705 21.823 3.76202 21.53 3.46902C21.237 3.17602 20.762 3.17602 20.469 3.46902L18.332 5.605L17.5291 4.80203C17.2361 4.50903 16.761 4.50903 16.468 4.80203C16.175 5.09503 16.175 5.57006 16.468 5.86306L17.803 7.19704Z" fill="currentColor"/>
</svg>

<svg xmlns="http://www.w3.org/2000/svg" width="24" height="24" fill="none"><path fill="currentColor" d="M21.75 11v6c0 2.418-1.332 3.75-3.75 3.75H6c-2.418 0-3.75-1.332-3.75-3.75V7c0-2.418 1.332-3.75 3.75-3.75h7a.75.75 0 0 1 0 1.5H6c-1.577 0-2.25.673-2.25 2.25v9.25l2.54-2.54c.39-.39 1.03-.39 1.42 0l.94.94c.19.19.51.19.7 0l4.94-4.94c.39-.39 1.03-.39 1.42 0l4.54 4.54V11a.75.75 0 0 1 1.5 0ZM7.993 7.75c-.689 0-1.243.56-1.243 1.25s.564 1.25 1.252 1.25a1.25 1.25 0 0 0 0-2.5h-.009Zm9.81-.553a.748.748 0 0 0 1.06 0L21.53 4.53a.75.75 0 0 0-1.061-1.061l-2.137 2.136-.803-.803a.75.75 0 0 0-1.061 1.061l1.335 1.334Z"/></svg>
